X: 312
T:En l'ombre d'ung buissonnet
N: Derived from Jos2707-En_lombre_dung_buissonnet.krn
C: Josquin des Prez
%%abc-version 2.0
%%abcx-abcm2ps-target-version 5.9.1 (29 Sep 2008)
%%abc-creator hum2abc beta
%%abcx-conversion-date 2019/02/12 16:15:54
%%abc-edited-by Jesse Rodin
%%abc-edited-by Jesse Rodin; Victoria Chang 2011/05/30
%%abcx-initial-encoding-date 2011/05/30/
%%humdrum-veritas 1691505551
%%humdrum-veritas-data 2722026195
%%linebreak <none>
%%barnumbers 0
L: 1/4
M: 2/1
Q: 1/2=120
V: 1 clef=treble
V: 2 clef=treble-8
V: 3 clef=bass
K: F
[V:1] z4G4 | 
[V:2] c4c4 | 
[V:3] z8 | 
[V:1] G4D3E | 
[V:2] G3ABcd2- | 
[V:3] G,4G,4 | 
[V:1] FGA4G2- | 
[V:2] d2c4=B2 | 
[V:3] D,2F,4G,2 | 
[V:1] G2^F2G4 | 
[V:2] c4z4 | 
[V:3] A,4G,4 | 
[V:1] z8 | 
[V:2] _e6d2 | 
[V:3] C6B,2 | 
[V:1] z8 | 
[V:2] c6B2 | 
[V:3] _E3DE2D2- | 
[V:1] B6A2 | 
[V:2] G3AB2c2- | 
[V:3] DCB,A,G,2F,2 | 
[V:1] G6F2 | 
[V:2] cBB4A2 | 
[V:3] _E,3D,C,4 | 
[V:1] D3EF2G2- | 
[V:2] B8 | 
[V:3] B,,2B,3A,G,F, | 
[V:1] GFF4E2 | 
[V:2] z8 | 
[V:3] E,2F,2G,4 | 
[V:1] F4z2G2 | 
[V:2] z2c2c2c2 | 
[V:3] F,4C,4 | 
[V:1] G2G2D3E | 
[V:2] G3ABcd2- | 
[V:3] z2G,2G,2G,2 | 
[V:1] FGA4G2- | 
[V:2] d2c4=B2 | 
[V:3] D,2F,4G,2 | 
[V:1] G2^F2G4 | 
[V:2] c4z4 | 
[V:3] A,4G,4 | 
[V:1] z8 | 
[V:2] _e6d2 | 
[V:3] C6B,2 | 
[V:1] z8 | 
[V:2] c6B2 | 
[V:3] _E3DE2D2- | 
[V:1] B6A2 | 
[V:2] G3AB2c2- | 
[V:3] DCB,A,G,2F,2 | 
[V:1] G6F2 | 
[V:2] cBB4A2 | 
[V:3] _E,3D,C,4 | 
[V:1] D3EF2G2- | 
[V:2] B8 | 
[V:3] B,,2B,4A,G, | 
[V:1] GFF4E2 | 
[V:2] z8 | 
[V:3] C2F,2G,4 | 
[V:1] F4z4 | 
[V:2] c2c2d4- | 
[V:3] F,4B,2B,2 | 
[V:1] G2G2G2G2 | 
[V:2] d2d2e2e2 | 
[V:3] B,2B,2C2C2 | 
[V:1] A2A2B3A | 
[V:2] f3ed2d2 | 
[V:3] F,2F,2G,4 | 
[V:1] G2G2D2_E2- | 
[V:2] d3cBAB2- | 
[V:3] G,2G,4G,2 | 
[V:1] E2D4C2 | 
[V:2] B2A4G2 | 
[V:3] D,4_E,4 | 
[V:1] D8 | 
[V:2] A4z4 | 
[V:3] D,8- | 
[V:1] z8 | 
[V:2] B4A2A2 | 
[V:3] D,8 | 
[V:1] z8 | 
[V:2] G3ABcd2- | 
[V:3] _E,4D,2B,,2 | 
[V:1] E4D2D2 | 
[V:2] d2c4=B2 | 
[V:3] C,4G,4 | 
[V:1] C3DEFG2- | 
[V:2] c4c4 | 
[V:3] A,3B,C2C,2 | 
[V:1] G2F4E2 | 
[V:2] z8 | 
[V:3] F,4G,4 | 
[V:1] F3GABc2- | 
[V:2] z4f4 | 
[V:3] F,8 | 
[V:1] c2G2A2B2- | 
[V:2] e4c2d2- | 
[V:3] z8 | 
[V:1] BAGFEDF2- | 
[V:2] dcBAG2d2- | 
[V:3] z8 | 
[V:1] F2E2D4 | 
[V:2] d2c4=B2 | 
[V:3] z8 | 
[V:1] C8 | 
[V:2] c3defg2- | 
[V:3] z4C4 | 
[V:1] z8 | 
[V:2] g2d2e2f2- | 
[V:3] B,4G,2A,2- | 
[V:1] z8 | 
[V:2] fedcBAc2- | 
[V:3] A,G,F,E,D,2A,2- | 
[V:1] z4c4 | 
[V:2] c2B2A4 | 
[V:3] A,2G,4^F,2 | 
[V:1] B4G2A2- | 
[V:2] G2d2e2c2 | 
[V:3] G,4z2F,2 | 
[V:1] AGFED2A2- | 
[V:2] d3cB2A2 | 
[V:3] F,2F,2G,2F,2 | 
[V:1] A2G4^F2 | 
[V:2] B2c2A4 | 
[V:3] G,2C,2D,4 | 
[V:1] G8 |]  
[V:2] G8 |]  
[V:3] D8 |]  



